X: 1
T: Lizzy Lindsay
R: waltz
S: http://www.traditionalmusic.co.uk/songs-tab/Lizzy_Lindsay.htm
Z: 2009 John Chambers <jc:trillian.mit.edu>
M: 3/4
L: 1/8
K: C
ED \
| C4 GG | G2E2 DC | D2E4- | E4 ED | C4 GG | G2 E2 G2 | A6 | B2 c2 |
| C4 GG | G2E2 DC | DEE4- | E4 G2 | A2 c3 A | G E3 D2 | "C"C6- | C4 |]
